X: 41700
T: Valerie Pringle's
R: reel
M: 4/4
K: Gdorian
DGGA BAGB|AFcF dFcF|GFDG FDCF|DFCA, G,3 F|
DG (3GGG BAGB|AFcF dFcF|G2 DG FDCF|(3DEF CA, G,2 DF|
G3 A BAGB|AFcF d3 F|GFDG FDCF|DCA,C [D3D3] F|
DGGA BAGB|AFcF dFcF|GFDG FDCF|DFCA, G,3 F||
DG (3GGG BG (3GGG|BGcG dG (3GGG|DG (3GGG dG (3GGG|cdcA FGAF|
DG (3GGG BG (3GGG|BGcG dG (3GGG|DGDG FDCF|DFCA, G,3 F|
DG (3GGG BG (3GGG|BGcG dG (3GGG|DG (3GGG dG (3GGG|cdcA FGAF|
G2 DG F2 DF|GFDG F2 DF|GFDG FDCF|DFCA, G,3 F||

